app/images/dist/icons-2.svg

<svg width="100%" viewBox="0 0 196 196"  viewBox="0 0 196 196" fill="none" xmlns="http://www.w3.org/2000/svg">
<rect x="15" y="15" width="166" height="166" rx="83" fill="#F8FAFF"/>
<path d="M108.12 82.8338C107.68 82.4869 107.051 82.5177 106.647 82.9059L97.5468 91.6352C97.2482 91.9112 97.1215 92.3271 97.2162 92.7229C97.3103 93.1181 97.6114 93.4317 98.0028 93.5428C98.3942 93.6538 98.8151 93.5447 99.1031 93.2567L107.497 85.2043L116.199 92.0593C116.605 92.3786 117.176 92.381 117.585 92.0637L129.862 82.5227L129.423 88.2341C129.376 88.8532 129.839 89.3933 130.458 89.441C130.487 89.4435 130.516 89.4447 130.545 89.4447C131.132 89.4441 131.62 88.9918 131.665 88.4066L132.3 80.1534C132.323 79.8555 132.226 79.56 132.03 79.3336C131.835 79.1065 131.558 78.9672 131.259 78.9459L122.371 78.3111C121.754 78.2703 121.22 78.7357 121.176 79.3524C121.132 79.969 121.594 80.5059 122.21 80.5536L128.183 80.9802L116.9 89.749L108.12 82.8338Z" fill="#273B98"/>
<path d="M134.971 130.441H132.521V97.4746C132.518 97.1803 132.396 96.9006 132.183 96.6973C131.971 96.4947 131.685 96.3862 131.392 96.3975H121.24C120.951 96.3881 120.671 96.4985 120.466 96.7024C120.261 96.9062 120.149 97.1854 120.156 97.4746V130.441H114.054V103.7C114.054 103.079 113.557 102.5 112.936 102.5H102.784C102.164 102.5 101.689 103.079 101.689 103.7V130.441H95.5866V115.293C95.5885 115.002 95.4718 114.723 95.2629 114.521C95.054 114.319 94.7711 114.21 94.4807 114.222H84.3288C84.0383 114.21 83.7554 114.319 83.5465 114.521C83.337 114.723 83.2197 115.002 83.2216 115.293V130.441H63.3656C62.7445 130.441 62.2415 130.945 62.2415 131.566C62.2415 132.186 62.7445 132.689 63.3656 132.689H134.971C135.592 132.689 136.095 132.186 136.095 131.566C136.095 130.945 135.592 130.441 134.971 130.441ZM103.937 104.748H111.806V130.441H103.937V104.748ZM85.4698 130.441V116.47H93.3384V130.441H85.4698ZM122.404 130.441V98.6457H130.273V130.441H122.404Z" fill="#273B98"/>
<path d="M77.2798 76.6369V74.8723C77.2798 71.857 74.8353 69.4125 71.82 69.4125C68.8046 69.4125 66.3601 71.857 66.3601 74.8723V76.6369C66.3601 79.6522 68.8046 82.0968 71.82 82.0968C74.8353 82.0968 77.2798 79.6522 77.2798 76.6369ZM68.6083 76.6369V74.8723C68.6008 74.0048 68.9395 73.1705 69.5498 72.5533C70.1595 71.9367 70.9907 71.5885 71.8582 71.586H71.8018C72.6674 71.5891 73.4954 71.9379 74.102 72.5558C74.7086 73.173 75.0436 74.0073 75.0317 74.8723V76.6369C75.0317 78.4491 73.6322 79.9239 71.82 79.9239C70.0077 79.9239 68.6083 78.4491 68.6083 76.6369Z" fill="#273B98"/>
<path d="M63.4772 105.069L63.5167 105.104C64.0286 105.104 64.5341 104.99 64.9965 104.77L65.5905 124.758C65.6425 126.249 66.5709 127.568 67.9566 128.12C69.3429 128.672 70.9236 128.353 71.9869 127.307C73.0495 128.356 74.6322 128.677 76.0191 128.124C77.406 127.571 78.3344 126.25 78.3845 124.759L78.9774 104.81C79.444 105.028 79.9534 105.141 80.4684 105.141C82.433 105.138 84.0238 103.545 84.0245 101.581V88.0779C84.3224 84.9521 82.0435 82.1707 78.9196 81.8489C78.7289 81.8295 78.5395 81.7843 78.3488 81.7843H76.026C75.7362 81.7981 75.462 81.9192 75.2569 82.1243L71.9894 85.208L68.8517 82.1293C68.6441 81.9179 68.3637 81.7943 68.0676 81.7843H65.603C62.444 81.8138 59.9004 84.385 59.9048 87.544C59.9048 87.7153 59.9368 87.9066 59.9368 88.0779V101.583C59.9318 102.515 60.3044 103.41 60.9705 104.063C61.6361 104.722 62.5394 105.084 63.4759 105.069H63.4772ZM74.6215 126.144C73.7853 126.143 73.1072 125.467 73.1047 124.63V104.703C73.1047 104.083 72.6016 103.579 71.9806 103.579C71.3603 103.579 70.8565 104.083 70.8565 104.703V124.63C70.8578 125.458 70.1935 126.133 69.3661 126.144C68.5387 126.155 67.8562 125.499 67.8355 124.671L67.1505 101.536H76.8239L76.1357 124.663C76.11 125.483 75.442 126.137 74.6215 126.144ZM62.185 101.583V88.0239C62.185 87.9863 62.1743 87.9486 62.1705 87.9116C62.1574 87.7956 62.1498 87.6795 62.148 87.5629C62.1448 86.6345 62.5086 85.7425 63.1598 85.0813C63.8021 84.4208 64.6815 84.0432 65.6024 84.0325H67.611L71.1921 87.5509C71.1996 87.5578 71.2072 87.5811 71.2147 87.588C71.2298 87.6024 71.2455 87.625 71.2611 87.6381C71.2743 87.6488 71.2881 87.6639 71.3013 87.6739C71.3176 87.6864 71.3345 87.7009 71.3515 87.7122C71.3659 87.7215 71.3803 87.7316 71.3947 87.7404C71.4092 87.7492 71.4286 87.7611 71.4462 87.7705C71.4637 87.7799 71.4769 87.7868 71.4932 87.7943C71.5089 87.8025 71.5271 87.8106 71.5446 87.8175C71.5622 87.8251 71.5779 87.8313 71.5948 87.837C71.6118 87.8433 71.6294 87.8489 71.6463 87.8545C71.6638 87.8595 71.6814 87.8646 71.699 87.869C71.7172 87.874 71.7335 87.8777 71.751 87.8809C71.7686 87.8846 71.7868 87.8878 71.805 87.8903C71.8232 87.8934 71.8401 87.896 71.8583 87.8972C71.8759 87.8991 71.8941 87.901 71.9116 87.9016C71.9298 87.9028 71.948 87.9035 71.9662 87.9035C71.9844 87.9041 72.0013 87.9035 72.0189 87.9028C72.0365 87.9016 72.0559 87.901 72.0747 87.8997C72.0929 87.8978 72.1086 87.896 72.1255 87.8934C72.1431 87.8915 72.1632 87.8884 72.182 87.8846C72.2008 87.8815 72.2152 87.8784 72.2322 87.874C72.2485 87.8702 72.2692 87.8652 72.2874 87.8602C72.3062 87.8545 72.3194 87.8502 72.3356 87.8439C72.352 87.8376 72.3714 87.8313 72.3896 87.8244C72.4072 87.8169 72.4216 87.8106 72.4379 87.8031C72.4536 87.7962 72.4718 87.7874 72.4881 87.7793C72.505 87.7705 72.5201 87.7617 72.5364 87.7529C72.5527 87.7435 72.5684 87.7335 72.5847 87.7234C72.6004 87.7134 72.6155 87.7027 72.6311 87.6914C72.6468 87.6802 72.6612 87.6695 72.6756 87.6576C72.6907 87.6456 72.7051 87.6331 72.7195 87.6206C72.7277 87.6137 72.7359 87.5716 72.744 87.5641L76.4707 84.0313H78.3488C78.4642 84.0313 78.5815 84.0726 78.6969 84.0846C80.5983 84.2878 81.9783 85.989 81.7857 87.8922C81.7819 87.9298 81.7763 87.985 81.7763 88.0233V101.58C81.7763 102.29 81.2011 102.865 80.4916 102.865C79.7822 102.865 79.2069 102.29 79.2069 101.58V98.6294L79.2207 98.1652C79.2226 98.0937 79.2069 98.0247 79.2069 97.9563V92.5071C79.2069 91.8861 78.7038 91.383 78.0828 91.383C77.4618 91.383 76.9587 91.8861 76.9587 92.5071V98.593L76.891 99.288H67.0834L67.032 98.0761C67.0301 98.0278 67.0025 98.0027 67.0025 97.9563V92.5071C67.0025 91.8861 66.4994 91.383 65.8784 91.383C65.258 91.383 64.7543 91.8861 64.7543 92.5071V101.514C64.7681 101.857 64.6408 102.19 64.403 102.436C64.1647 102.683 63.8366 102.822 63.4941 102.821H63.4759C63.1359 102.835 62.8047 102.709 62.5595 102.473C62.3167 102.241 62.1812 101.919 62.185 101.583Z" fill="#273B98"/>
<path d="M93.1344 63.238C86.5298 63.2374 81.1759 68.5913 81.1759 75.1959C81.1759 81.8 86.5298 87.1538 93.1338 87.1538C99.7385 87.1538 105.092 81.8 105.092 75.1959C105.085 68.595 99.7353 63.2456 93.1344 63.238ZM93.1344 84.9057C87.7718 84.9057 83.4241 80.5586 83.4241 75.1959C83.4241 69.8333 87.7711 65.4856 93.1338 65.4856C98.4964 65.4856 102.844 69.8333 102.844 75.1959C102.838 80.5561 98.494 84.8994 93.1344 84.9057Z" fill="#273B98"/>
<path d="M96.1341 70.3233C96.7138 70.5466 97.3642 70.2574 97.5869 69.6784C97.8102 69.0988 97.521 68.4483 96.9421 68.225C95.1512 67.5344 93.1577 67.5952 91.4126 68.3944C89.6675 69.1935 88.3182 70.6633 87.6715 72.4704H86.4332C85.8128 72.4704 85.3091 72.9735 85.3091 73.5945C85.3091 74.2149 85.8128 74.7186 86.4332 74.7186H87.2593C87.253 74.9865 87.2612 75.2544 87.285 75.5216H86.4332C85.8128 75.5216 85.3091 76.0246 85.3091 76.6456C85.3091 77.2661 85.8128 77.7697 86.4332 77.7697H87.8684C89.4109 81.2367 93.3998 82.8878 96.9414 81.5247C97.3203 81.3829 97.5938 81.0492 97.6578 80.6496C97.7224 80.2506 97.5668 79.8473 97.2519 79.5945C96.9364 79.3417 96.5092 79.2771 96.1335 79.4264C94.0823 80.2168 91.7563 79.5381 90.4516 77.7697H94.623C95.244 77.7697 95.7471 77.2661 95.7471 76.6456C95.7471 76.0246 95.244 75.5216 94.623 75.5216H89.5464C89.5107 75.255 89.4975 74.9865 89.5062 74.7186H95.4259C96.0469 74.7186 96.55 74.2149 96.55 73.5945C96.55 72.9735 96.0469 72.4704 95.4259 72.4704H90.1354C91.326 70.3659 93.8784 69.4526 96.1341 70.3233Z" fill="#273B98"/>
<rect x="15" y="15" width="166" height="166" rx="83" stroke="#EAEFFF" stroke-opacity="0.21" stroke-width="29"/>
</svg>

<svg width="100%" viewBox="0 0 196 196"  fill="none" xmlns="http://www.w3.org/2000/svg"><rect x="15" y="15" width="166" height="166" rx="83" fill="#F8FAFF"/><path d="M108.12 82.834a1.123 1.123 0 0 0-1.473.072l-9.1 8.73a1.125 1.125 0 1 0 1.556 1.62l8.394-8.052 8.702 6.855c.406.32.977.322 1.386.005l12.277-9.541-.439 5.711a1.125 1.125 0 0 0 2.242.173l.635-8.254a1.121 1.121 0 0 0-.27-.82 1.12 1.12 0 0 0-.771-.387l-8.888-.635a1.124 1.124 0 0 0-.161 2.243l5.973.426-11.283 8.77-8.78-6.915Zm26.851 47.607h-2.45V97.475a1.09 1.09 0 0 0-1.129-1.078H121.24a1.05 1.05 0 0 0-1.084 1.078v32.966h-6.102V103.7c0-.621-.497-1.2-1.118-1.2h-10.152c-.62 0-1.095.579-1.095 1.2v26.741h-6.102v-15.148a1.064 1.064 0 0 0-1.106-1.071H84.329a1.064 1.064 0 0 0-1.107 1.071v15.148H63.366a1.125 1.125 0 0 0 0 2.248h71.605a1.123 1.123 0 1 0 0-2.248Zm-31.034-25.693h7.869v25.693h-7.869v-25.693ZM85.47 130.441V116.47h7.868v13.971H85.47Zm36.934 0V98.646h7.869v31.795h-7.869ZM77.28 76.637v-1.765a5.46 5.46 0 0 0-10.92 0v1.765a5.46 5.46 0 0 0 10.92 0Zm-8.672 0v-1.765a3.257 3.257 0 0 1 3.25-3.286h-.056a3.242 3.242 0 0 1 3.23 3.286v1.765c0 1.812-1.4 3.287-3.212 3.287-1.812 0-3.212-1.475-3.212-3.287Z" fill="#273B98"/><path d="m63.477 105.069.04.035c.512 0 1.017-.114 1.48-.334l.594 19.988a3.76 3.76 0 0 0 6.396 2.549 3.758 3.758 0 0 0 6.398-2.548l.592-19.949c.467.218.976.331 1.491.331a3.561 3.561 0 0 0 3.556-3.56V88.078a5.717 5.717 0 0 0-5.104-6.23c-.191-.019-.38-.064-.571-.064h-2.323c-.29.014-.564.135-.77.34l-3.267 3.084-3.137-3.079a1.153 1.153 0 0 0-.784-.345h-2.465a5.752 5.752 0 0 0-5.698 5.76c0 .171.032.363.032.534v13.505a3.447 3.447 0 0 0 1.034 2.48 3.481 3.481 0 0 0 2.505 1.006h.001Zm11.145 21.075a1.518 1.518 0 0 1-1.517-1.514v-19.927a1.124 1.124 0 0 0-2.249 0v19.927a1.511 1.511 0 0 1-3.02.041l-.686-23.135h9.674l-.688 23.127a1.528 1.528 0 0 1-1.514 1.481Zm-12.437-24.561v-13.56c0-.037-.01-.074-.015-.111a3.599 3.599 0 0 1-.022-.35 3.52 3.52 0 0 1 1.012-2.48 3.464 3.464 0 0 1 2.442-1.05h2.009l3.581 3.519c.008.007.015.03.023.037.015.014.03.037.046.05.013.01.027.026.04.036l.05.038.044.028a.802.802 0 0 0 .15.077.637.637 0 0 0 .05.02l.051.017.053.015a.594.594 0 0 0 .106.021.74.74 0 0 0 .161.013h.053l.056-.003a1.022 1.022 0 0 0 .157-.026 1.533 1.533 0 0 0 .104-.03l.054-.02a1.77 1.77 0 0 0 .098-.045c.017-.008.032-.017.048-.026l.049-.03a.94.94 0 0 0 .09-.065c.016-.012.03-.025.044-.037.009-.007.017-.05.025-.057l3.727-3.533h1.878c.115 0 .233.042.348.054a3.477 3.477 0 0 1 3.089 3.807c-.004.038-.01.093-.01.131v13.557a1.285 1.285 0 1 1-2.57 0v-2.95l.015-.465c.002-.071-.014-.14-.014-.209v-5.449a1.124 1.124 0 1 0-2.248 0v6.086l-.068.695h-9.808l-.051-1.212c-.002-.048-.03-.073-.03-.12v-5.449a1.124 1.124 0 1 0-2.248 0v9.007a1.258 1.258 0 0 1-1.26 1.307h-.018a1.248 1.248 0 0 1-.916-.348 1.211 1.211 0 0 1-.375-.89Zm30.949-38.345c-6.604 0-11.958 5.353-11.958 11.958 0 6.604 5.354 11.958 11.958 11.958 6.605 0 11.958-5.354 11.958-11.958-.007-6.601-5.357-11.95-11.958-11.958Zm0 21.668c-5.362 0-9.71-4.347-9.71-9.71s4.347-9.71 9.71-9.71c5.362 0 9.71 4.347 9.71 9.71-.006 5.36-4.35 9.703-9.71 9.71Z" fill="#273B98"/><path d="M96.134 70.323a1.124 1.124 0 1 0 .808-2.098 7.124 7.124 0 0 0-9.27 4.245h-1.239a1.124 1.124 0 0 0 0 2.249h.826c-.006.268.002.535.026.803h-.852a1.124 1.124 0 0 0 0 2.248h1.435a7.128 7.128 0 0 0 9.073 3.755 1.124 1.124 0 1 0-.808-2.099 4.88 4.88 0 0 1-5.681-1.656h4.171a1.124 1.124 0 0 0 0-2.248h-5.077a4.86 4.86 0 0 1-.04-.803h5.92a1.124 1.124 0 0 0 0-2.249h-5.29a4.874 4.874 0 0 1 5.998-2.147Z" fill="#273B98"/><rect x="15" y="15" width="166" height="166" rx="83" stroke="#EAEFFF" stroke-opacity=".21" stroke-width="29"/></svg>
